svg/Outline/images.svg

<svg viewBox="0 0 24 24" xmlns="http://www.w3.org/2000/svg" width="24" height="24"><path fill-rule="evenodd" d="M13.7 8.1a2.18 2.18 0 1 1 0 4.36 2.18 2.18 0 0 1 0-4.35m0 1.8a.38.38 0 1 0 0 .76.38.38 0 0 0 0-.75" clip-rule="evenodd"/><path fill-rule="evenodd" d="M18.1 1.87c1.3.02 2.08.1 2.73.43a4 4 0 0 1 1.74 1.75c.44.86.44 1.98.44 4.22v5.68c-.03 1.3-.11 2.1-.44 2.73l-.15.28a4 4 0 0 1-1.6 1.47l-.16.08q-.44.18-1.05.26a4 4 0 0 1-.33 1.18l-.16.28a4 4 0 0 1-1.6 1.47l-.16.08c-.61.26-1.37.33-2.57.35H5.92a7 7 0 0 1-2.56-.35l-.17-.08a4 4 0 0 1-1.6-1.47l-.15-.28c-.32-.64-.4-1.43-.42-2.73L1 15.73v-4.2c0-2.1 0-3.21.36-4.05l.07-.16a4 4 0 0 1 1.48-1.6l.27-.15a4 4 0 0 1 1.22-.34q.07-.58.26-1.02l.07-.16a4 4 0 0 1 1.47-1.6l.28-.15c.64-.33 1.43-.4 2.73-.43h8.87M7.66 13.71q-.16 0-.29.1l-4.54 4.07q0 .18.02.33c.04.56.12.8.19.92q.33.64.96.96l.12.06c.15.05.38.1.8.14.57.04 1.33.04 2.48.04h.92l.07-.07 3-3-3.44-3.43a.4.4 0 0 0-.29-.12m7.37 2.61q-.16 0-.28.12l-3.89 3.9h2.44c1.15 0 1.9 0 2.48-.05.56-.05.79-.13.92-.2l.15-.08q.53-.32.81-.88l.05-.12q.06-.15.12-.53l-2.5-2.06h-.01a.4.4 0 0 0-.29-.1M10.71 3.67c-1.15 0-1.9 0-2.49.04-.55.05-.78.13-.91.2a2.2 2.2 0 0 0-.96.96q-.06.08-.1.27h8.54c1.3.02 2.1.1 2.74.43a4 4 0 0 1 1.75 1.75c.43.85.43 1.97.43 4.21v5.4q.2-.05.3-.1l.15-.09q.52-.32.8-.87l.06-.12c.05-.15.1-.38.14-.8.05-.58.05-1.33.05-2.48v-4.2c0-1.15 0-1.9-.05-2.48a3 3 0 0 0-.14-.8l-.05-.12A2.2 2.2 0 0 0 20 3.9a3 3 0 0 0-.92-.2c-.58-.04-1.33-.04-2.48-.04zM7.4 6.93c-1.15 0-1.9 0-2.48.05-.56.05-.79.12-.92.2a2.2 2.2 0 0 0-.96.95c-.07.13-.15.37-.2.92-.04.58-.04 1.33-.04 2.48v3.96l3.37-3.02.17-.14a2.2 2.2 0 0 1 2.88.22L12.67 16l.82-.82.15-.14a2.2 2.2 0 0 1 2.84 0l1.43 1.18v-4.68c0-1.15 0-1.9-.05-2.48a3 3 0 0 0-.14-.8l-.05-.12a2.2 2.2 0 0 0-.96-.96 3 3 0 0 0-.92-.19q-.43-.04-1.02-.04H7.4" clip-rule="evenodd"/></svg>

<svg viewBox="0 0 24 24" xmlns="http://www.w3.org/2000/svg" width="24" height="24"><path fill-rule="evenodd" d="M13.7 8.1a2.18 2.18 0 1 1 0 4.36 2.18 2.18 0 0 1 0-4.35m0 1.8a.38.38 0 1 0 0 .76.38.38 0 0 0 0-.75" clip-rule="evenodd"/><path fill-rule="evenodd" d="M18.1 1.87C19.4 1.89 20.18 1.97 20.83 2.3A4 4 0 0 1 22.57 4.05C23.01 4.91 23.01 6.03 23.01 8.27L23.01 13.95C22.98 15.25 22.9 16.05 22.57 16.68L22.42 16.96A4 4 0 0 1 20.82 18.43L20.66 18.51Q20.22 18.69 19.61 18.77A4 4 0 0 1 19.28 19.95L19.12 20.23A4 4 0 0 1 17.52 21.7L17.36 21.78C16.75 22.04 15.99 22.11 14.79 22.13L5.92 22.13A7 7 0 0 1 3.36 21.78L3.19 21.7A4 4 0 0 1 1.59 20.23L1.44 19.95C1.12 19.31 1.04 18.52 1.02 17.22L1 11.53C1 9.43 1 8.32 1.36 7.48L1.43 7.32A4 4 0 0 1 2.91 5.72L3.18 5.57A4 4 0 0 1 4.4 5.23Q4.47 4.65 4.66 4.21L4.73 4.05A4 4 0 0 1 6.2 2.45L6.48 2.3C7.12 1.97 7.91 1.9 9.21 1.87L18.08 1.87M7.66 13.71Q7.5 13.71 7.37 13.81L2.83 17.88Q2.83 18.06 2.85 18.21C2.89 18.77 2.97 19.01 3.04 19.13Q3.37 19.77 4 20.09L4.12 20.15C4.27 20.2 4.5 20.25 4.92 20.29C5.49 20.33 6.25 20.33 7.4 20.33L8.32 20.33L11.39 17.26L7.95 13.83A.4 .4 0 0 0 7.66 13.71M15.03 16.32Q14.87 16.32 14.75 16.44L10.86 20.34L13.3 20.34C14.45 20.34 15.2 20.34 15.78 20.29C16.34 20.24 16.57 20.16 16.7 20.09L16.85 20.01Q17.38 19.69 17.66 19.13L17.71 19.01Q17.77 18.86 17.83 18.48L15.32 16.42A.4 .4 0 0 0 15.03 16.32M10.71 3.67c-1.15 0-1.9 0-2.49.04-.55.05-.78.13-.91.2a2.2 2.2 0 0 0-.96.96q-.06.08-.1.27h8.54c1.3.02 2.1.1 2.74.43a4 4 0 0 1 1.75 1.75c.43.85.43 1.97.43 4.21v5.4q.2-.05.3-.1l.15-.09q.52-.32.8-.87l.06-.12c.05-.15.1-.38.14-.8.05-.58.05-1.33.05-2.48v-4.2c0-1.15 0-1.9-.05-2.48a3 3 0 0 0-.14-.8l-.05-.12A2.2 2.2 0 0 0 20 3.9a3 3 0 0 0-.92-.2c-.58-.04-1.33-.04-2.48-.04zM7.4 6.93C6.25 6.93 5.5 6.93 4.92 6.98C4.36 7.03 4.13 7.1 4 7.18A2.2 2.2 0 0 0 3.04 8.13C2.97 8.26 2.89 8.5 2.84 9.05C2.8 9.63 2.8 10.38 2.8 11.53L2.8 15.49L6.34 12.33A2.2 2.2 0 0 1 9.22 12.55L12.67 16L13.64 15.04A2.2 2.2 0 0 1 16.48 15.04L17.91 16.22L17.91 11.54C17.91 10.39 17.91 9.64 17.86 9.06A3 3 0 0 0 17.72 8.26L17.67 8.14A2.2 2.2 0 0 0 16.71 7.18A3 3 0 0 0 15.79 6.99Q15.36 6.95 14.77 6.95L7.4 6.95" clip-rule="evenodd"/></svg>
